X:20
T:folantein, y
R:rond
H:noted by jennie williams, from the singing of evan rowlands, april 1911.
N:it was said to be very popular in the mynydd bach district 50 years ago
(1861)
O:traditional welsh
Z:crm
M:C
L:1/4
Q:1/2=170
K:Em
B|Bedf|e2BB|Bedf|e2B:||
e|eeeB|BcBA|GBAG|F2E:||
